src/assets/images/Logo.svg

<svg width="191" height="36" viewBox="0 0 191 36" fill="none" xmlns="http://www.w3.org/2000/svg">
<path fill-rule="evenodd" clip-rule="evenodd" d="M35.4086 24.6466C35.4086 24.6466 35.4169 28.3988 35.0155 30.0247C34.6134 31.6512 33.8758 32.7852 33.0583 33.6164C32.2369 34.4508 31.1491 35.2098 29.4904 35.6055C27.8324 36.0013 24.2344 35.9941 24.2344 35.9941L11.1626 36C11.1626 36 7.47137 36.0084 5.87214 35.5997C4.27228 35.1916 3.15692 34.4417 2.33877 33.6105C1.51806 32.7755 0.771503 31.6701 0.382244 29.9837C-0.00701543 28.2987 1.61943e-05 24.6407 1.61943e-05 24.6407V11.3534C1.61943e-05 11.3534 -0.00893151 7.60122 0.393111 5.97532C0.795154 4.34876 1.53276 3.21478 2.35027 2.38364C3.17162 1.54924 4.2595 0.790222 5.91752 0.394468C7.57619 -0.000635818 11.1741 0.00586258 11.1741 0.00586258L24.246 1.26233e-05C24.246 1.26233e-05 27.9372 -0.0084344 29.5364 0.399667C31.1363 0.808418 32.2517 1.55834 33.0692 2.38948C33.8905 3.22453 34.6371 4.32991 35.0263 6.01626C35.4156 7.7013 35.4086 11.3593 35.4086 11.3593V24.6466Z" fill="white"/>
<path fill-rule="evenodd" clip-rule="evenodd" d="M5.47136 7.59861C5.47136 8.11003 5.31157 8.4733 4.98367 8.70984C4.63148 8.96523 4.09713 9.09455 3.39787 9.09455H2.38669V6.26383H3.39787C5.25596 6.26383 5.47136 7.0261 5.47136 7.59861ZM4.55414 4.03097C4.28952 4.25582 3.82037 4.36954 3.1601 4.36954H2.38669V2.00736H3.20739C3.81845 2.00736 4.2729 2.10159 4.55926 2.2868C4.81045 2.44861 4.93254 2.71439 4.93254 3.09975C4.93254 3.5111 4.80917 3.81587 4.55414 4.03097ZM6.0038 5.14545C6.32914 4.96415 6.59376 4.72695 6.79382 4.43647C7.12108 3.96079 7.28727 3.43507 7.28727 2.87425C7.28727 2.34398 7.1818 1.88519 6.97471 1.51218C6.76698 1.13852 6.47487 0.835048 6.10735 0.612152C5.75388 0.397704 5.3333 0.239792 4.8552 0.142315C4.39051 0.0480883 3.87853 -1.03008e-09 3.33395 -1.03008e-09H0.273568C0.122722 -1.03008e-09 -5.07444e-10 0.12477 -5.07444e-10 0.278133V10.8231C-5.07444e-10 10.9771 0.122722 11.1013 0.273568 11.1013H3.58834C4.17895 11.1013 4.73183 11.0363 5.23295 10.9076C5.74621 10.7757 6.19875 10.5684 6.57778 10.2922C6.96576 10.0095 7.27129 9.65081 7.48733 9.22516C7.70209 8.79952 7.81075 8.29589 7.81075 7.72728C7.81075 6.94682 7.58512 6.31452 7.13834 5.84858C6.84687 5.54446 6.4672 5.30921 6.0038 5.14545Z" transform="translate(49.3975 12.9297)" fill="white"/>
<path fill-rule="evenodd" clip-rule="evenodd" d="M6.96576 8.96523H2.37071V0.278133C2.37071 0.12477 2.24799 -3.74472e-09 2.09714 -3.74472e-09H0.272929C0.122083 -3.74472e-09 1.17129e-08 0.12477 1.17129e-08 0.278133V10.8231C1.17129e-08 10.9771 0.122083 11.1013 0.272929 11.1013H6.96576C7.11661 11.1013 7.23933 10.9771 7.23933 10.8231V9.24336C7.23933 9.08935 7.11661 8.96523 6.96576 8.96523Z" transform="translate(64.6285 12.9297)" fill="white"/>
<path fill-rule="evenodd" clip-rule="evenodd" d="M6.26458 5.69424C6.26458 6.26156 6.21345 6.78013 6.1131 7.23762C6.01275 7.68731 5.87341 8.07397 5.69699 8.38654C5.53017 8.68547 5.32691 8.91681 5.09361 9.07473C4.63212 9.38665 4.03257 9.37495 3.58898 9.07408C3.35632 8.91681 3.15307 8.68547 2.98496 8.38654C2.80983 8.07397 2.67304 7.68796 2.57844 7.24022C2.48257 6.78208 2.43399 6.26221 2.43399 5.69424C2.43399 4.56872 2.62127 3.68103 2.99008 3.05588C3.33651 2.46843 3.78074 2.18315 4.34961 2.18315C4.91784 2.18315 5.36206 2.46843 5.7085 3.05588C6.0773 3.68103 6.26458 4.56872 6.26458 5.69424ZM7.50714 1.54045C7.12875 1.04657 6.66343 0.661865 6.12588 0.396729C5.05015 -0.132243 3.64843 -0.132243 2.57269 0.396729C2.03514 0.661865 1.56982 1.04657 1.19143 1.54045C0.818148 2.02783 0.522848 2.63089 0.312558 3.33207C0.104826 4.02805 4.57718e-07 4.82216 4.57718e-07 5.69424C4.57718e-07 6.57673 0.104826 7.37929 0.312558 8.07982C0.522209 8.78555 0.81687 9.3977 1.18887 9.90068C1.56726 10.4115 2.03259 10.8085 2.57077 11.0795C3.10896 11.3498 3.70723 11.4869 4.34961 11.4869C4.99134 11.4869 5.58961 11.3498 6.1278 11.0788C6.66599 10.8085 7.13067 10.4115 7.5097 9.90068C7.8817 9.3977 8.17636 8.78555 8.38538 8.07982C8.59375 7.37994 8.69921 6.57738 8.69921 5.69424C8.69921 4.82151 8.59375 4.02675 8.38538 3.33142C8.17572 2.63089 7.88042 2.02783 7.50714 1.54045Z" transform="translate(78.2093 12.7378)" fill="white"/>
<path fill-rule="evenodd" clip-rule="evenodd" d="M7.40679 8.34617C7.35502 8.28769 7.28152 8.25455 7.20417 8.25455C7.12683 8.25455 7.05269 8.28769 7.00092 8.34617C6.72799 8.6542 6.43461 8.89529 6.13036 9.06165C5.52825 9.39177 4.66152 9.36967 4.03129 9.0636C3.70531 8.90504 3.4228 8.67629 3.19078 8.38256C2.95428 8.08364 2.76828 7.70803 2.63661 7.26614C2.50238 6.81644 2.43399 6.29787 2.43399 5.72666C2.43399 5.16649 2.50174 4.65702 2.63661 4.21188C2.76828 3.77453 2.95236 3.40152 3.18438 3.10129C3.41129 2.80822 3.6887 2.57947 4.00892 2.42156C4.62253 2.11938 5.45922 2.10444 6.02937 2.38907C6.31188 2.53073 6.57267 2.72179 6.80469 2.95703C6.85838 3.01097 6.9517 3.04541 7.00475 3.03826C7.07953 3.03631 7.15112 3.00252 7.20098 2.94598L8.23133 1.78536C8.32913 1.67554 8.32529 1.50723 8.22175 1.40196C7.86636 1.04064 7.42277 0.715073 6.9044 0.434341C5.79926 -0.162214 4.2614 -0.112826 3.06294 0.390802C2.44166 0.652688 1.89772 1.03869 1.44454 1.53972C0.993281 2.0375 0.635342 2.65225 0.380949 3.36708C0.127835 4.07736 -1.77028e-06 4.88771 -1.77028e-06 5.7754C-1.77028e-06 6.67413 0.127835 7.48708 0.380949 8.19281C0.635982 8.90179 0.994559 9.50939 1.44646 9.99742C1.90027 10.4868 2.43974 10.8624 3.04952 11.1126C3.65674 11.3614 4.31765 11.4869 5.01563 11.4869C5.71042 11.4869 6.34832 11.3445 6.91271 11.0638C7.47199 10.785 7.98078 10.3802 8.42564 9.85966C8.51577 9.75373 8.51449 9.59517 8.42181 9.4912L7.40679 8.34617Z" transform="translate(93.2812 12.7373)" fill="white"/>
<path fill-rule="evenodd" clip-rule="evenodd" d="M5.05718 4.41568L8.13226 0.449691C8.19682 0.366511 8.20896 0.252139 8.16294 0.156612C8.11756 0.0604353 8.02232 -2.64609e-09 7.9175 -2.64609e-09H5.87149C5.78776 -2.64609e-09 5.7085 0.0389906 5.65609 0.105924L2.40203 4.32405V0.277483C2.40203 0.12412 2.27931 -2.64609e-09 2.12846 -2.64609e-09H0.273569C0.122085 -2.64609e-09 -4.82785e-08 0.12412 -4.82785e-08 0.277483V10.8231C-4.82785e-08 10.9765 0.122085 11.1013 0.273569 11.1013H2.12846C2.27931 11.1013 2.40203 10.9765 2.40203 10.8231V7.84165L3.58707 6.35871L5.97887 10.9531C6.02681 11.0441 6.11949 11.1013 6.22048 11.1013H8.26649C8.363 11.1013 8.45249 11.0493 8.50234 10.9635C8.55156 10.8784 8.5522 10.7737 8.5049 10.6873L5.05718 4.41568Z" transform="translate(108.449 12.9297)" fill="white"/>
<path fill-rule="evenodd" clip-rule="evenodd" d="M7.5497 6.08785C7.33174 5.84351 7.0716 5.62582 6.7763 5.44126C6.48994 5.2619 6.17035 5.10204 5.8367 4.97077L4.46886 4.37227C4.23428 4.27479 4.00801 4.18317 3.79005 4.09674C3.59382 4.01811 3.41933 3.92778 3.2736 3.82705C3.13937 3.73477 3.0339 3.63015 2.95848 3.51578C2.89392 3.417 2.86197 3.29613 2.86197 3.14667C2.86197 2.84969 2.97382 2.63264 3.21287 2.46368C3.47621 2.27718 3.85333 2.18295 4.33336 2.18295C4.76991 2.18295 5.16684 2.25703 5.51263 2.40325C5.86802 2.55401 6.21445 2.76326 6.54299 3.02645C6.65932 3.12002 6.82998 3.10053 6.92394 2.98291L7.87632 1.7898C7.96708 1.67542 7.95558 1.51036 7.85011 1.41029C7.39374 0.981391 6.85683 0.635025 6.25344 0.382237C5.13936 -0.085 3.81881 -0.112943 2.79485 0.238622C2.32633 0.399133 1.91534 0.627227 1.57338 0.917057C1.22886 1.20884 0.955302 1.5552 0.758435 1.94771C0.559651 2.34606 0.459296 2.78146 0.459296 3.24349C0.459296 3.66524 0.530884 4.0493 0.672142 4.38462C0.811483 4.71474 1.00004 5.00782 1.2327 5.25736C1.46089 5.5004 1.7204 5.71095 2.00355 5.8838C2.28096 6.05276 2.56731 6.19573 2.84407 6.3036L4.26879 6.93785C4.51743 7.03272 4.74818 7.1276 4.96103 7.22248C5.15853 7.31086 5.32791 7.40638 5.4647 7.50711C5.58678 7.59679 5.68074 7.70011 5.7453 7.81514C5.80538 7.92236 5.83606 8.06078 5.83606 8.22584C5.83606 8.54816 5.71526 8.78925 5.45511 8.9855C5.17707 9.1954 4.74626 9.30197 4.17484 9.30197C3.7076 9.30197 3.241 9.19865 2.78654 8.99525C2.32314 8.7873 1.90128 8.51307 1.53375 8.17905C1.47814 8.12901 1.4072 8.10237 1.33305 8.10951C1.26018 8.11406 1.19243 8.14851 1.14449 8.20504L0.0662008 9.47873C-0.0290371 9.59181 -0.0207283 9.76141 0.0860146 9.86344C0.626759 10.3794 1.25315 10.7836 1.94794 11.0637C2.64337 11.3444 3.38162 11.4867 4.14288 11.4867C4.77311 11.4867 5.34773 11.3971 5.85012 11.2216C6.35635 11.0436 6.79163 10.7992 7.14382 10.4925C7.4992 10.1838 7.77596 9.81925 7.96644 9.4079C8.15755 8.9959 8.25471 8.54946 8.25471 8.08027C8.25471 7.66112 8.19271 7.28291 8.06935 6.95734C7.94727 6.63112 7.77277 6.33869 7.5497 6.08785Z" transform="translate(122.854 12.7378)" fill="white"/>
<path fill-rule="evenodd" clip-rule="evenodd" d="M8.6468 -6.45936e-09H0.272926C0.12208 -6.45936e-09 -6.08357e-07 0.12412 -6.08357e-07 0.278133V1.8579C-6.08357e-07 2.01191 0.12208 2.13603 0.272926 2.13603H3.26684V10.8231C3.26684 10.9771 3.38892 11.1013 3.54041 11.1013H5.37996C5.53081 11.1013 5.65289 10.9771 5.65289 10.8231V2.13603H8.6468C8.79765 2.13603 8.92037 2.01191 8.92037 1.8579V0.278133C8.92037 0.12412 8.79765 -6.45936e-09 8.6468 -6.45936e-09Z" transform="translate(137.308 12.9297)" fill="white"/>
<path fill-rule="evenodd" clip-rule="evenodd" d="M4.68492 2.70919C4.75842 2.99122 4.83385 3.27521 4.91055 3.55984L5.63537 6.22354H3.72934L3.99396 5.28907C4.15312 4.7276 4.30908 4.15379 4.46248 3.56634C4.53791 3.28105 4.61205 2.99512 4.68492 2.70919ZM6.05339 0.191704C6.01632 0.0773313 5.9115 -2.64609e-09 5.79261 -2.64609e-09H3.63539C3.51714 -2.64609e-09 3.41231 0.0773313 3.37524 0.191704L0.0131627 10.7373C-0.0136829 10.8218 0.00101717 10.9148 0.0527903 10.9862C0.103925 11.0584 0.186378 11.1013 0.273945 11.1013H2.14483C2.26691 11.1013 2.37429 11.0194 2.40753 10.8998L3.15983 8.24715H6.20424L6.94058 10.8985C6.97445 11.0187 7.08183 11.1013 7.20392 11.1013H9.15469C9.24225 11.1013 9.32471 11.0584 9.37584 10.9862C9.42761 10.9148 9.44168 10.8218 9.41484 10.7373L6.05339 0.191704Z" transform="translate(151.856 12.9297)" fill="white"/>
<path fill-rule="evenodd" clip-rule="evenodd" d="M7.4068 8.34617C7.30325 8.2292 7.10447 8.2292 7.00092 8.34617C6.72799 8.6542 6.4346 8.89464 6.13099 9.06165C5.52825 9.39112 4.66152 9.36967 4.03129 9.0636C3.70531 8.90504 3.4228 8.67629 3.19077 8.38256C2.95428 8.08364 2.76828 7.70803 2.63661 7.26614C2.50238 6.81709 2.43462 6.29982 2.43462 5.72666C2.43462 5.16519 2.50238 4.65572 2.63661 4.21188C2.76828 3.77453 2.95236 3.40087 3.18566 3.10129C3.41129 2.80822 3.6887 2.57947 4.00892 2.42156C4.62317 2.11938 5.45922 2.10444 6.02937 2.38907C6.31252 2.53073 6.5733 2.72114 6.80468 2.95638C6.85774 3.01097 6.93572 3.04541 7.00475 3.03826C7.07954 3.03631 7.15112 3.00317 7.20097 2.94598L8.23198 1.78536C8.32977 1.67554 8.3253 1.50723 8.22239 1.40196C7.86701 1.04064 7.42278 0.715073 6.90441 0.434341C5.79927 -0.162214 4.26076 -0.112826 3.06294 0.390802C2.44166 0.652688 1.89772 1.03869 1.44454 1.53972C0.993284 2.03815 0.635346 2.6529 0.381592 3.36643C0.127839 4.07671 1.66668e-06 4.88706 1.66668e-06 5.7754C1.66668e-06 6.67478 0.128478 7.48773 0.381592 8.19216C0.635985 8.90114 0.993923 9.50874 1.44646 9.99742C1.89964 10.4861 2.43974 10.8617 3.05015 11.1126C3.65609 11.3614 4.31765 11.4869 5.01563 11.4869C5.71042 11.4869 6.34832 11.3445 6.91272 11.0638C7.47136 10.785 7.98013 10.3802 8.42628 9.85966C8.5164 9.75373 8.51513 9.59517 8.42245 9.4912L7.4068 8.34617Z" transform="translate(167.293 12.7373)" fill="white"/>
<path fill-rule="evenodd" clip-rule="evenodd" d="M8.5049 10.6873L5.05717 4.41568L8.13226 0.449691C8.19746 0.366511 8.2096 0.252139 8.16358 0.156612C8.1182 0.0604353 8.02232 0 7.91749 0H5.87212C5.78775 0 5.7085 0.0389905 5.65673 0.105924L2.40267 4.3234V0.277483C2.40267 0.12412 2.28058 0 2.1291 0H0.273569C0.122723 0 -4.34935e-06 0.12412 -4.34935e-06 0.277483V10.8231C-4.34935e-06 10.9765 0.122723 11.1013 0.273569 11.1013H2.1291C2.28058 11.1013 2.40267 10.9765 2.40267 10.8231V7.8423L3.58771 6.35871L5.97951 10.9531C6.02681 11.0441 6.12012 11.1013 6.22111 11.1013H8.26648C8.363 11.1013 8.45313 11.0493 8.50235 10.9635C8.55156 10.8784 8.5522 10.7737 8.5049 10.6873Z" transform="translate(182.46 12.9297)" fill="white"/>
<path fill-rule="evenodd" clip-rule="evenodd" d="M2.8942 5.86613C4.49278 5.86613 5.78839 4.5528 5.78839 2.93274C5.78839 1.31333 4.49278 -4.52033e-09 2.8942 -4.52033e-09C1.29561 -4.52033e-09 -4.10388e-08 1.31333 -4.10388e-08 2.93274C-4.10388e-08 4.5528 1.29561 5.86613 2.8942 5.86613Z" transform="translate(9.05402 8.57861)" fill="#5900FF"/>
<path fill-rule="evenodd" clip-rule="evenodd" d="M2.8942 5.86613C4.49278 5.86613 5.7884 4.5528 5.7884 2.93274C5.7884 1.31333 4.49278 -4.52033e-09 2.8942 -4.52033e-09C1.29561 -4.52033e-09 2.9658e-07 1.31333 2.9658e-07 2.93274C2.9658e-07 4.5528 1.29561 5.86613 2.8942 5.86613Z" transform="translate(20.6311 8.57861)" fill="#5900FF"/>
<path fill-rule="evenodd" clip-rule="evenodd" d="M2.8942 5.86613C4.49278 5.86613 5.7884 4.5528 5.7884 2.93274C5.7884 1.31268 4.49278 -1.003e-07 2.8942 -1.003e-07C1.29561 -1.003e-07 2.9658e-07 1.31268 2.9658e-07 2.93274C2.9658e-07 4.5528 1.29561 5.86613 2.8942 5.86613Z" transform="translate(20.6311 20.311)" fill="#5900FF"/>
<path fill-rule="evenodd" clip-rule="evenodd" d="M2.8942 5.86613C4.49278 5.86613 5.78839 4.5528 5.78839 2.93274C5.78839 1.31268 4.49278 -1.003e-07 2.8942 -1.003e-07C1.29561 -1.003e-07 -4.10388e-08 1.31268 -4.10388e-08 2.93274C-4.10388e-08 4.5528 1.29561 5.86613 2.8942 5.86613Z" transform="translate(9.05402 20.311)" fill="#5900FF"/>
</svg>

<svg width="35.409px" height="36px" viewBox="0 0 35.409 36">
<path d="M35.409,24.647c0,0,0.008,3.752-0.393,5.378c-0.402,1.626-1.14,2.76-1.957,3.592
	c-0.821,0.834-1.909,1.593-3.568,1.989c-1.658,0.396-5.256,0.389-5.256,0.389L11.163,36c0,0-3.691,0.008-5.29-0.4
	c-1.6-0.408-2.715-1.158-3.533-1.989c-0.821-0.835-1.567-1.94-1.957-3.627C-0.007,28.299,0,24.641,0,24.641V11.353
	c0,0-0.009-3.752,0.393-5.378c0.402-1.627,1.14-2.761,1.957-3.592C3.172,1.549,4.26,0.79,5.918,0.394
	c1.659-0.395,5.257-0.389,5.257-0.389L24.246,0c0,0,3.691-0.008,5.29,0.4c1.6,0.409,2.715,1.159,3.533,1.99
	c0.821,0.835,1.568,1.94,1.957,3.627c0.389,1.685,0.382,5.343,0.382,5.343V24.647z M11.948,14.445c1.599,0,2.894-1.313,2.894-2.933
	c0-1.619-1.296-2.933-2.894-2.933c-1.599,0-2.894,1.313-2.894,2.933C9.054,13.131,10.35,14.445,11.948,14.445z M23.525,14.445
	c1.599,0,2.894-1.313,2.894-2.933c0-1.619-1.296-2.933-2.894-2.933c-1.599,0-2.894,1.313-2.894,2.933
	C20.631,13.131,21.927,14.445,23.525,14.445z M23.525,26.177c1.599,0,2.894-1.313,2.894-2.933s-1.296-2.933-2.894-2.933
	c-1.599,0-2.894,1.313-2.894,2.933S21.927,26.177,23.525,26.177z M11.948,26.177c1.599,0,2.894-1.313,2.894-2.933
	s-1.296-2.933-2.894-2.933c-1.599,0-2.894,1.313-2.894,2.933S10.35,26.177,11.948,26.177z"/>
</svg>
